X:1
T:Polska i A-dur efter Ola i Skarup
M:3/4
L:1/16
O:Nättraby, Blekinge
R:Polska
N:By ...
Z:Andy Davey 2018
K:A
|: cefe dcBA A2a2 | aefe dcBA A2f2 | fece edBd dcAc | 
[1 cABG A2A,2 C2E2 :|[2 cABG G2A2 A4 ]| ecAc ecAc efga | B2Bc B2Bc d2c2 | 
| ecAc ecAc efga | B2Bc B2Bc d2c2 | cefe dcBA A2a2 |
| aefe dcBA A2f2 | fece edBd dcAc | cABG G2A2 A4 ||

